actions/24/editcopy.svg

<?xml version="1.0" encoding="UTF-8" standalone="no"?>
<!-- Created with Inkscape (http://www.inkscape.org/) -->

<svg
   xmlns:dc="http://purl.org/dc/elements/1.1/"
   xmlns:cc="http://creativecommons.org/ns#"
   xmlns:rdf="http://www.w3.org/1999/02/22-rdf-syntax-ns#"
   xmlns:svg="http://www.w3.org/2000/svg"
   xmlns="http://www.w3.org/2000/svg"
   xmlns:xlink="http://www.w3.org/1999/xlink"
   xmlns:sodipodi="http://sodipodi.sourceforge.net/DTD/sodipodi-0.dtd"
   xmlns:inkscape="http://www.inkscape.org/namespaces/inkscape"
   id="svg3508"
   height="24"
   width="24"
   version="1.0"
   inkscape:version="0.48.4 r9939"
   sodipodi:docname="editcopy.svg">
  <metadata
     id="metadata62">
    <rdf:RDF>
      <cc:Work
         rdf:about="">
        <dc:format>image/svg+xml</dc:format>
        <dc:type
           rdf:resource="http://purl.org/dc/dcmitype/StillImage" />
        <dc:title></dc:title>
      </cc:Work>
    </rdf:RDF>
  </metadata>
  <sodipodi:namedview
     pagecolor="#ffffff"
     bordercolor="#666666"
     borderopacity="1"
     objecttolerance="10"
     gridtolerance="10"
     guidetolerance="10"
     inkscape:pageopacity="0"
     inkscape:pageshadow="2"
     inkscape:window-width="1366"
     inkscape:window-height="709"
     id="namedview60"
     showgrid="true"
     inkscape:zoom="19.666666"
     inkscape:cx="4.9434971"
     inkscape:cy="13.777633"
     inkscape:window-x="0"
     inkscape:window-y="27"
     inkscape:window-maximized="1"
     inkscape:current-layer="svg3508">
    <inkscape:grid
       type="xygrid"
       id="grid3816"
       empspacing="5"
       visible="true"
       enabled="true"
       snapvisiblegridlinesonly="true" />
  </sodipodi:namedview>
  <defs
     id="defs3510">
    <linearGradient
       id="linearGradient3156"
       y2="36"
       gradientUnits="userSpaceOnUse"
       x2="-0.097514004"
       gradientTransform="matrix(0.72415,0,0,0.73599,74.074876,5.5950852)"
       y1="36"
       x1="36.5">
      <stop
         id="stop3916"
         style="stop-color:#c02cbb"
         offset="0" />
      <stop
         id="stop3918"
         style="stop-color:#b329ae;stop-opacity:.49804"
         offset=".79722" />
      <stop
         id="stop3920"
         style="stop-color:#982394;stop-opacity:0"
         offset="1" />
    </linearGradient>
    <linearGradient
       id="linearGradient3154"
       y2="15.5"
       gradientUnits="userSpaceOnUse"
       x2="-0.073089004"
       gradientTransform="matrix(0.72415,0,0,0.73599,74.074876,5.5950852)"
       y1="15.5"
       x1="23.997">
      <stop
         id="stop3700"
         style="stop-color:#ce7ecc"
         offset="0" />
      <stop
         id="stop3702"
         style="stop-color:#c056bc;stop-opacity:.81569"
         offset=".76279" />
      <stop
         id="stop3704"
         style="stop-color:#f8c9f7;stop-opacity:0"
         offset="1" />
    </linearGradient>
    <linearGradient
       id="linearGradient3151"
       y2="-0.43753999"
       gradientUnits="userSpaceOnUse"
       x2="20.483999"
       gradientTransform="matrix(0,-0.86253,0.84866,0,75.365876,45.413085)"
       y1="12.82"
       x1="20.483999">
      <stop
         id="stop2189"
         style="stop-color:#fff;stop-opacity:.64341"
         offset="0" />
      <stop
         id="stop2191"
         style="stop-color:#fff;stop-opacity:0"
         offset="1" />
    </linearGradient>
    <linearGradient
       id="linearGradient5060">
      <stop
         id="stop5062"
         offset="0" />
      <stop
         id="stop5064"
         style="stop-opacity:0"
         offset="1" />
    </linearGradient>
    <linearGradient
       id="linearGradient3104">
      <stop
         id="stop3106"
         style="stop-color:#aaa"
         offset="0" />
      <stop
         id="stop3108"
         style="stop-color:#c8c8c8"
         offset="1" />
    </linearGradient>
    <filter
       id="filter3248"
       y="-0.16434"
       x="-0.14846"
       height="1.3286999"
       width="1.2969"
       color-interpolation-filters="sRGB">
      <feGaussianBlur
         id="feGaussianBlur3250"
         stdDeviation="0.77391625" />
    </filter>
    <linearGradient
       id="linearGradient2432"
       y2="5.4565001"
       gradientUnits="userSpaceOnUse"
       x2="36.358002"
       gradientTransform="matrix(0.9977,0,0,1.0407,57.259676,-6.7147148)"
       y1="8.059"
       x1="32.891998">
      <stop
         id="stop8591"
         style="stop-color:#fefefe"
         offset="0" />
      <stop
         id="stop8593"
         style="stop-color:#cbcbcb"
         offset="1" />
    </linearGradient>
    <linearGradient
       id="linearGradient2439"
       y2="3.3638999"
       xlink:href="#linearGradient3104"
       gradientUnits="userSpaceOnUse"
       x2="22.004"
       gradientTransform="translate(55.113776,-8.6560148)"
       y1="47.813"
       x1="22.004" />
    <linearGradient
       id="linearGradient2442"
       y2="46.016998"
       gradientUnits="userSpaceOnUse"
       x2="24"
       gradientTransform="matrix(1,0,0,0.97778,57.095876,-6.5755848)"
       y1="2"
       x1="24">
      <stop
         id="stop3213"
         style="stop-color:#fff"
         offset="0" />
      <stop
         id="stop3215"
         style="stop-color:#fff;stop-opacity:0"
         offset="1" />
    </linearGradient>
    <radialGradient
       id="radialGradient2445"
       gradientUnits="userSpaceOnUse"
       cy="112.3"
       cx="102"
       gradientTransform="matrix(0.3617,0,0,-0.39078,57.946936,41.908085)"
       r="139.56">
      <stop
         id="stop41"
         style="stop-color:#b7b8b9"
         offset="0" />
      <stop
         id="stop47"
         style="stop-color:#ececec"
         offset=".18851" />
      <stop
         id="stop49"
         style="stop-color:#fafafa;stop-opacity:0"
         offset=".25718" />
      <stop
         id="stop51"
         style="stop-color:#fff;stop-opacity:0"
         offset=".30111" />
      <stop
         id="stop53"
         style="stop-color:#fafafa;stop-opacity:0"
         offset=".53130" />
      <stop
         id="stop55"
         style="stop-color:#ebecec;stop-opacity:0"
         offset=".84490" />
      <stop
         id="stop57"
         style="stop-color:#e1e2e3;stop-opacity:0"
         offset="1" />
    </radialGradient>
    <linearGradient
       id="linearGradient2448"
       y2="47.013"
       gradientUnits="userSpaceOnUse"
       x2="25.132"
       gradientTransform="matrix(1,0,0,0.95617,57.095876,-7.5238148)"
       y1="0.98521"
       x1="25.132">
      <stop
         id="stop3602"
         style="stop-color:#f4f4f4"
         offset="0" />
      <stop
         id="stop3604"
         style="stop-color:#dbdbdb"
         offset="1" />
    </linearGradient>
    <linearGradient
       id="linearGradient2450"
       y2="2.9061999"
       xlink:href="#linearGradient3104"
       gradientUnits="userSpaceOnUse"
       x2="-51.785999"
       gradientTransform="matrix(0.8075,0,0,0.89483,116.50588,-8.5895148)"
       y1="50.785999"
       x1="-51.785999" />
    <radialGradient
       id="radialGradient2453"
       xlink:href="#linearGradient5060"
       gradientUnits="userSpaceOnUse"
       cy="486.64999"
       cx="605.71002"
       gradientTransform="matrix(0.02304,0,0,0.0147,83.456876,31.431085)"
       r="117.14" />
    <radialGradient
       id="radialGradient2456"
       xlink:href="#linearGradient5060"
       gradientUnits="userSpaceOnUse"
       cy="486.64999"
       cx="605.71002"
       gradientTransform="matrix(-0.02304,0,0,0.0147,78.718876,31.431085)"
       r="117.14" />
    <linearGradient
       id="linearGradient2459"
       y2="609.51001"
       gradientUnits="userSpaceOnUse"
       x2="302.85999"
       gradientTransform="matrix(0.067325,0,0,0.0147,56.754736,31.431085)"
       y1="366.64999"
       x1="302.85999">
      <stop
         id="stop5050"
         style="stop-opacity:0"
         offset="0" />
      <stop
         id="stop5056"
         offset=".5" />
      <stop
         id="stop5052"
         style="stop-opacity:0"
         offset="1" />
    </linearGradient>
  </defs>
  <path
     style="fill:#000000;fill-opacity:1;stroke:none"
     d="m 4,4 0,11 7,0 0,-7 1,0 0,-2 -2,-2 z m 2,2 3,0 0,1 1,0 0,6 -4,0 z"
     id="path3041"
     inkscape:connector-curvature="0"
     sodipodi:nodetypes="ccccccccccccccc" />
  <path
     style="fill:#000000;fill-opacity:1;stroke:none"
     d="m 12,9 0,11 8,0 0,-9 -2,-2 z m 2,2 3,0 0,1 1,0 0,6 -4,0 z"
     id="path3041-0"
     inkscape:connector-curvature="0"
     sodipodi:nodetypes="ccccccccccccc" />
</svg>

<?xml version="1.0" encoding="UTF-8" standalone="no"?>
<!-- Created with Inkscape (http://www.inkscape.org/) -->

<svg
   xmlns:dc="http://purl.org/dc/elements/1.1/"
   xmlns:cc="http://creativecommons.org/ns#"
   xmlns:rdf="http://www.w3.org/1999/02/22-rdf-syntax-ns#"
   xmlns:svg="http://www.w3.org/2000/svg"
   xmlns="http://www.w3.org/2000/svg"
   xmlns:xlink="http://www.w3.org/1999/xlink"
   xmlns:sodipodi="http://sodipodi.sourceforge.net/DTD/sodipodi-0.dtd"
   xmlns:inkscape="http://www.inkscape.org/namespaces/inkscape"
   id="svg3508"
   height="24"
   width="24"
   version="1.0"
   inkscape:version="0.48.3.1 r9886"
   sodipodi:docname="editcopy.svg">
  <metadata
     id="metadata62">
    <rdf:RDF>
      <cc:Work
         rdf:about="">
        <dc:format>image/svg+xml</dc:format>
        <dc:type
           rdf:resource="http://purl.org/dc/dcmitype/StillImage" />
        <dc:title />
      </cc:Work>
    </rdf:RDF>
  </metadata>
  <sodipodi:namedview
     pagecolor="#ffffff"
     bordercolor="#666666"
     borderopacity="1"
     objecttolerance="10"
     gridtolerance="10"
     guidetolerance="10"
     inkscape:pageopacity="0"
     inkscape:pageshadow="2"
     inkscape:window-width="1366"
     inkscape:window-height="709"
     id="namedview60"
     showgrid="true"
     inkscape:zoom="19.666666"
     inkscape:cx="4.9434971"
     inkscape:cy="13.777633"
     inkscape:window-x="0"
     inkscape:window-y="27"
     inkscape:window-maximized="1"
     inkscape:current-layer="svg3508">
    <inkscape:grid
       type="xygrid"
       id="grid3816"
       empspacing="5"
       visible="true"
       enabled="true"
       snapvisiblegridlinesonly="true" />
  </sodipodi:namedview>
  <defs
     id="defs3510">
    <linearGradient
       id="linearGradient3156"
       y2="36"
       gradientUnits="userSpaceOnUse"
       x2="-0.097514004"
       gradientTransform="matrix(0.72415,0,0,0.73599,74.074876,5.5950852)"
       y1="36"
       x1="36.5">
      <stop
         id="stop3916"
         style="stop-color:#c02cbb"
         offset="0" />
      <stop
         id="stop3918"
         style="stop-color:#b329ae;stop-opacity:.49804"
         offset=".79722" />
      <stop
         id="stop3920"
         style="stop-color:#982394;stop-opacity:0"
         offset="1" />
    </linearGradient>
    <linearGradient
       id="linearGradient3154"
       y2="15.5"
       gradientUnits="userSpaceOnUse"
       x2="-0.073089004"
       gradientTransform="matrix(0.72415,0,0,0.73599,74.074876,5.5950852)"
       y1="15.5"
       x1="23.997">
      <stop
         id="stop3700"
         style="stop-color:#ce7ecc"
         offset="0" />
      <stop
         id="stop3702"
         style="stop-color:#c056bc;stop-opacity:.81569"
         offset=".76279" />
      <stop
         id="stop3704"
         style="stop-color:#f8c9f7;stop-opacity:0"
         offset="1" />
    </linearGradient>
    <linearGradient
       id="linearGradient3151"
       y2="-0.43753999"
       gradientUnits="userSpaceOnUse"
       x2="20.483999"
       gradientTransform="matrix(0,-0.86253,0.84866,0,75.365876,45.413085)"
       y1="12.82"
       x1="20.483999">
      <stop
         id="stop2189"
         style="stop-color:#fff;stop-opacity:.64341"
         offset="0" />
      <stop
         id="stop2191"
         style="stop-color:#fff;stop-opacity:0"
         offset="1" />
    </linearGradient>
    <linearGradient
       id="linearGradient5060">
      <stop
         id="stop5062"
         offset="0" />
      <stop
         id="stop5064"
         style="stop-opacity:0"
         offset="1" />
    </linearGradient>
    <linearGradient
       id="linearGradient3104">
      <stop
         id="stop3106"
         style="stop-color:#aaa"
         offset="0" />
      <stop
         id="stop3108"
         style="stop-color:#c8c8c8"
         offset="1" />
    </linearGradient>
    <filter
       id="filter3248"
       y="-0.16434"
       x="-0.14846"
       height="1.3286999"
       width="1.2969"
       color-interpolation-filters="sRGB">
      <feGaussianBlur
         id="feGaussianBlur3250"
         stdDeviation="0.77391625" />
    </filter>
    <linearGradient
       id="linearGradient2432"
       y2="5.4565001"
       gradientUnits="userSpaceOnUse"
       x2="36.358002"
       gradientTransform="matrix(0.9977,0,0,1.0407,57.259676,-6.7147148)"
       y1="8.059"
       x1="32.891998">
      <stop
         id="stop8591"
         style="stop-color:#fefefe"
         offset="0" />
      <stop
         id="stop8593"
         style="stop-color:#cbcbcb"
         offset="1" />
    </linearGradient>
    <linearGradient
       id="linearGradient2439"
       y2="3.3638999"
       xlink:href="#linearGradient3104"
       gradientUnits="userSpaceOnUse"
       x2="22.004"
       gradientTransform="translate(55.113776,-8.6560148)"
       y1="47.813"
       x1="22.004" />
    <linearGradient
       id="linearGradient2442"
       y2="46.016998"
       gradientUnits="userSpaceOnUse"
       x2="24"
       gradientTransform="matrix(1,0,0,0.97778,57.095876,-6.5755848)"
       y1="2"
       x1="24">
      <stop
         id="stop3213"
         style="stop-color:#fff"
         offset="0" />
      <stop
         id="stop3215"
         style="stop-color:#fff;stop-opacity:0"
         offset="1" />
    </linearGradient>
    <radialGradient
       id="radialGradient2445"
       gradientUnits="userSpaceOnUse"
       cy="112.3"
       cx="102"
       gradientTransform="matrix(0.3617,0,0,-0.39078,57.946936,41.908085)"
       r="139.56">
      <stop
         id="stop41"
         style="stop-color:#b7b8b9"
         offset="0" />
      <stop
         id="stop47"
         style="stop-color:#ececec"
         offset=".18851" />
      <stop
         id="stop49"
         style="stop-color:#fafafa;stop-opacity:0"
         offset=".25718" />
      <stop
         id="stop51"
         style="stop-color:#fff;stop-opacity:0"
         offset=".30111" />
      <stop
         id="stop53"
         style="stop-color:#fafafa;stop-opacity:0"
         offset=".53130" />
      <stop
         id="stop55"
         style="stop-color:#ebecec;stop-opacity:0"
         offset=".84490" />
      <stop
         id="stop57"
         style="stop-color:#e1e2e3;stop-opacity:0"
         offset="1" />
    </radialGradient>
    <linearGradient
       id="linearGradient2448"
       y2="47.013"
       gradientUnits="userSpaceOnUse"
       x2="25.132"
       gradientTransform="matrix(1,0,0,0.95617,57.095876,-7.5238148)"
       y1="0.98521"
       x1="25.132">
      <stop
         id="stop3602"
         style="stop-color:#f4f4f4"
         offset="0" />
      <stop
         id="stop3604"
         style="stop-color:#dbdbdb"
         offset="1" />
    </linearGradient>
    <linearGradient
       id="linearGradient2450"
       y2="2.9061999"
       xlink:href="#linearGradient3104"
       gradientUnits="userSpaceOnUse"
       x2="-51.785999"
       gradientTransform="matrix(0.8075,0,0,0.89483,116.50588,-8.5895148)"
       y1="50.785999"
       x1="-51.785999" />
    <radialGradient
       id="radialGradient2453"
       xlink:href="#linearGradient5060"
       gradientUnits="userSpaceOnUse"
       cy="486.64999"
       cx="605.71002"
       gradientTransform="matrix(0.02304,0,0,0.0147,83.456876,31.431085)"
       r="117.14" />
    <radialGradient
       id="radialGradient2456"
       xlink:href="#linearGradient5060"
       gradientUnits="userSpaceOnUse"
       cy="486.64999"
       cx="605.71002"
       gradientTransform="matrix(-0.02304,0,0,0.0147,78.718876,31.431085)"
       r="117.14" />
    <linearGradient
       id="linearGradient2459"
       y2="609.51001"
       gradientUnits="userSpaceOnUse"
       x2="302.85999"
       gradientTransform="matrix(0.067325,0,0,0.0147,56.754736,31.431085)"
       y1="366.64999"
       x1="302.85999">
      <stop
         id="stop5050"
         style="stop-opacity:0"
         offset="0" />
      <stop
         id="stop5056"
         offset=".5" />
      <stop
         id="stop5052"
         style="stop-opacity:0"
         offset="1" />
    </linearGradient>
  </defs>
  <path
     style="fill:#000000;fill-opacity:1;stroke:none;opacity:0.8"
     d="M 4 4 L 4 15 L 11 15 L 11 8 L 12 8 L 12 6 L 10 4 L 4 4 z M 6 6 L 9 6 L 9 7 L 10 7 L 10 13 L 6 13 L 6 6 z M 12 9 L 12 20 L 20 20 L 20 11 L 18 9 L 12 9 z M 14 11 L 17 11 L 17 12 L 18 12 L 18 18 L 14 18 L 14 11 z "
     id="path3041" />
</svg>
